X:1
T:Consolation (Lindemann), 87.87.77
T:Consolation (Lindemann), 87.87.77
T:Ludvig Mattias Lindeman, 1871
T:Public Domain Courtesy of the Cyber Hymnal™
C:Ludvig Mattias Lindeman, 1871
Z:Public Domain
Z:Courtesy of the Cyber Hymnal™
%%score ( 1 2 ) ( 3 4 )
L:1/8
Q:1/4=113
M:4/4
K:Eb
V:1 treble 
V:2 treble 
V:3 bass 
V:4 bass 
V:1
|: [CE]2 [Ec]2 [DB]2 [EA]2 | [CA]2 (GF) [EG]2 E2 | [Ee]2 [Ec]2 [CA]2 [B,B]2 | [EG]2 [DF]2 [B,E]4 :| %4
 [B,E]2 [EA]2 [FA]2 [EG]2 | [CE]2 [Ec]2 [EB]4 | [EG]2 [EA]2 [Dd]2 [Ec]2 | [Ec]2 [EB]2 [CA]4 |] %8
V:2
|: x8 | x2 D2 x E2 x | x8 | x8 :| x8 | x8 | x8 | x8 |] %8
V:3
|: [A,,A,]2 [A,,A,]2 [B,,F,]2 [C,A,]2 | [F,A,]2 [B,,B,]2 [E,B,]2 [E,G,]2 | %2
 [C,A,]2 [A,,A,]2 [F,A,]2 [D,F,]2 | [E,B,]2 [B,,B,]2 [E,G,]4 :| [E,G,]2 [C,C]2 [D,B,]2 [E,B,]2 | %5
 A,2 [A,,A,]2 [E,G,]4 | [E,B,]2 [C,A,]2 [B,,F,]2 [C,A,]2 | [E,A,]2 [E,G,]2 [A,,A,]4 |] %8
V:4
|: x8 | x8 | x8 | x8 :| x8 | A,2 x6 | x8 | x8 |] %8

